X:1
T:Unfortunate Miss Bailey
M:4/4
L:1/4
K:F
 c| A F F F| C F F A| G F E F| G B2| c| A F F F| C F F A| G F E F|\
 G B2| C| F3/2 F/2 F A| c3/2 c/2 c c| d c B A| G B2| c| F3/2 F/2 F A|\
 c c c d| c B A G| F A2- A| F3 F| E C2 C| D3/2 E/2 F D| C F2||
